components/Icon/svg/bolt.svg

<svg width="24" height="24" viewBox="0 0 24 24" fill="none" xmlns="http://www.w3.org/2000/svg">
<path fill-rule="evenodd" clip-rule="evenodd" d="M7.31389 23.8888C7.42304 23.9634 7.54869 24 7.67308 24V23.9987C7.83681 23.9987 7.99927 23.9368 8.12239 23.8143L20.8147 11.183C20.9962 11.0024 21.0495 10.7308 20.9518 10.4946C20.854 10.2584 20.6218 10.1043 20.3654 10.1043H14.2908L18.407 0.887231C18.5313 0.609343 18.4387 0.282192 18.1861 0.110406C17.9335 -0.0613798 17.5934 -0.0298015 17.3776 0.184931L4.68531 12.8162C4.50381 12.9969 4.4505 13.2684 4.54823 13.5046C4.64596 13.7409 4.87823 13.895 5.13462 13.895H11.2092L7.09304 23.112C6.96865 23.3899 7.06131 23.7171 7.31389 23.8888ZM12.1852 12.6319H6.66658L15.8583 3.48426L12.7335 10.4807C12.6472 10.6765 12.665 10.9026 12.7817 11.082C12.8985 11.2614 13.099 11.37 13.3135 11.37H18.8322L9.64038 20.5176L12.7652 13.5211C12.8515 13.3253 12.8338 13.0992 12.717 12.9198C12.6002 12.7405 12.3997 12.6319 12.1852 12.6319Z" fill="currentColor"/>
</svg>

<svg xmlns="http://www.w3.org/2000/svg" width="24" height="24" viewBox="0 0 24 24">
  <path fill="currentColor" fill-rule="evenodd" d="M7.314 23.889a.641.641 0 0 0 .36.111v-.001a.635.635 0 0 0 .448-.185l12.693-12.631a.63.63 0 0 0-.45-1.079h-6.074L18.407.887a.629.629 0 0 0-.22-.777.639.639 0 0 0-.81.075L4.686 12.816a.63.63 0 0 0 .45 1.079h6.074l-4.116 9.217a.629.629 0 0 0 .22.777Zm4.871-11.257H6.667l9.191-9.148-3.125 6.997a.634.634 0 0 0 .58.889h5.52L9.64 20.518l3.125-6.997a.633.633 0 0 0-.58-.89Z" />
</svg>
